!!!OTL-incipit: HERR OLOFF REITET SPAET UND WEIT
!!!ARE: Europa, Mitteleuropa, Deutschland, Westfalen
!!!SCT: Z0009
!!!TXL: @@DE
!!!YEM: Copyright 1995, estate of Helmut Schaffrath.
**kern	**text
*ICvox	*
*M2/4	*
*k[b-e-a-d-]	*
*f:	*
=1	=1
!LO:TX:a:t=Weſtphäliſch.	!
{2cc/	Herr
=2	=2
4b-/	O-
4cc/	-loff
=3	=3
4dd-	rei-
4b-	-tet
=4	=4
4g	ſpät
4cc/	und
=5	=5
2f}	weit,
=6	=6
{2cc	ʒu
=7	=7
4b-/	bit-
4cc/	-ten
=8	=8
4dd-	auf
8b-/	ſei-
8b-/	-ne
=9	=9
4g	Hoch-
4cc	-ʒeit
=10	=10
2f}	Leut;
=11	=11
{2a-	da
=12	=12
4a-	tan-
8a-	-ʒen
8a-	die
=13	=13
4b-/	El-
8b-/	-fen
8b-/	auf
=14	=14
4b-	grü-
4b-	-nem
=15	=15
2cc}	Land,
=16	=16
{2a-	Erl-
=17	=17
4a-	-Königs
4b-/	.
=18	=18
4cc	Toch-
8a-	-ter
8a-	ihm
=19	=19
4g	reicht
4a-	die
=20	=20
2f}	Hand.
{2cc/	Will-
=21	=21
4b-	-kom-
8cc/	-men,
8cc/	Herr
=22	=22
4dd-	O-
8b-/	-loff,
8b-/	was
=23	=23
4g	eilſt
4cc/	von
=24	=24
2f}	hier?
{2cc/	tritt
=25	=25
4b-	her
8cc/	in
8cc/	den
=26	=26
4dd-	Rei-
8b-/	-hen
8b-/	und
=27	=27
4g	tanʒ
4cc/	mit
=28	=28
2f}	mir.
==	==
!!!AGN: Sagen - Lied, Romanze, Tod
!!!ONB: ESAC (Essen Associative Code) Database: ZUCCAL
!!!AMT: simple duple
!!!AIN: vox
!!!EED: Helmut Schaffrath
!!!EEV: 1.0
!!!GTL: I. Ernste Romanzen und Sagen.
!!!URL-scan: https://www.digitale-sammlungen.de/de/view/bsb11160571?page=27
!!!ENC: Anna Maria Matuszewska
!!!EEV: 2025/01/22
*-	*-
